X:1
T:Title
%%score { ( 1 3 ) | 2 }
L:1/8
M:4/4
K:C
V:1 treble nm="Grand Piano"
V:3 treble 
V:2 bass 
V:1
 z4 z2[Q:1/4=100] [G,CE]>[G,DF] | [CEG]2 [DFG]2 [CEG]2 [CEG]>[CEG] | %2
 [CFA]2 [CFc]2 [CEG]2 [CEG]>[CFA] | [CEG]2 [B,DF]2 [B,DF]2 [B,DF]>[EG] | %4
 [G,DF]2 [G,CE]2 [G,CE]2 [G,CE]>[G,DF] | [CEG]2 [B,FG]2 [CEG]2 [CEG]>[CEG] | %6
 [CFA]2 [CFc]2 [CEG]2 [G,DG][EA] | [DB]2 [Dc]2 [Gd]2 [DGB][B,G] |[M:7/8] [DGB]2 [C^FA]2 [B,G]3 | %9
[M:1/4] [B,FG]>[FG] |[M:4/4] [Ec]3 [Fd] [Ec]>[DFG] [CEG]2 | A3 A c>c [Gc]2 | z4 d2 z2 | %13
[M:9/8] [Ge]2 [Gc]- [Gc] d2- dG>G |[M:4/4] [Ec]3 [Fd] [Ec]>[DFG] [CEG]2 | A3 A c>c [Gc]2 | %16
 d2 dd cc B>B |[M:3/4] [Ec]6 |] %18
V:2
 z4 z2 C,>C, | C,2 G,,2 C,2 C,>C, | F,2 A,,2 C,2 C,>C, | G,2 G,2 G,2 G,>G, | C,2 C,2 C,2 C,>C, | %5
 C,2 G,,2 C,2 C,>C, | F,2 A,,2 C,2 B,,[C,G,] | [D,G,]2 [D,A,]2 [D,B,]2 D,D, |[M:7/8] D,2 D,2 G,,3 | %9
[M:1/4] G,>G, |[M:4/4] [C,G,]3 [C,G,] [C,G,]>C, C,2 | [F,CF]3 [F,CF] [F,A,F]>[F,A,F] [E,C]2 | %12
 [G,B,G]2 [G,B,G][G,B,G] .[G,B,G]2[K:bass] [E,C][G,B,] | %13
[M:9/8] [C,C]2 [E,C]- [E,C][K:treble] [G,B,G]2- [G,B,G][G,B,]>[G,F] | %14
[M:4/4][K:bass] [C,G,]3 [C,G,] [C,G,]>C, C,2 | [F,CF]3 [F,CF] [F,A,F]>[F,A,F] [E,C]2 | %16
 [F,A,F]2 [F,A,F][F,A,F] [G,E][G,E] [G,F]>[G,F] |[M:3/4][K:bass] [C,G,]6 |] %18
V:3
 x8 | x8 | x8 | x8 | x8 | x8 | x8 | x8 |[M:7/8] x7 |[M:1/4] x2 |[M:4/4] x8 | x8 | %12
 d2 dd z F,[Gc][Gd] |[M:9/8] x9 |[M:4/4] x8 | x8 | x8 |[M:3/4] x6 |] %18

